X:1
T:Title
%%score { ( 1 4 ) | ( 2 3 ) }
L:1/8
Q:1/4=112
M:4/4
K:E
V:1 treble nm="Grand Piano"
V:4 treble 
V:2 bass 
V:3 bass 
V:1
 [^B,^EA]2 [B,=G^A]2 [=D^GB]2 [B,=A^B]2 | [^B,^EA]2 [B,=G^A]2 [=D^GB]2 [B,=A^B]2 | %2
w: Frank~N.~Shepperd * * *||
 [E=d]2 [DF]2 [E=G]2 [Ed]2 | =d2 ^B=B ^B4 | A2 [=G^A]2 [^GB]2 [=A^B]2 | %5
w: |||
 [^EA]2 [=G^A]2 [^GB]2 [=A^B]2 | [Ae]2 [F=d]c B2 A2 | F2 G2 [A,CA]4 | AGBA c2 A2 | e3 =d [EAc]4 | %10
w: |||||
 .[DAc]2 [DAB]2 .[DAc]2 [DAB]2 | A2 z2 z4 | AGBA ^B2 A2 | e3 =d ^B4 | e=d [E^A^B]2 ed [EAB]2 | %15
w: |||||
 e2 =d2 [=G^B]2 [E^A]2 | [^B,^EA]2 [B,=G^A]2 [=D^GB]2 [B,=A^B]2 | %17
w: ||
 [^B,^EA]2 [B,=G^A]2 [^GB]2 [=A^B]2 | [E=d]2 [DF]2 [E=G]2 [Ed]2 | =d2 ^B=B ^B4 | z2 .^A2 z4 | %21
w: ||||
 [^B,A]2 [^E^B]2 e2 =d2 | [E^B]2 [=D^A]=A [^B,EA]2 [^A,E=G]2 | [A,^E]8 |] %24
w: |||
V:2
 ^E,2 E,2 E,2 E,2 | ^E,2 E,2 E,2 E,2 | [^B,,^A,]2 [B,,=A,]2 [B,,^A,]2 [B,,A,]2 | %3
 [^E,A,^E]2 [E,E]-[E,G,E] [E,A,E]4 | [^E,^B,^E]2 [E,B,]2 [E,=D]2 [E,B,]2 | %5
 [^E,^B,]2 [E,B,]2 [E,=D]2 [E,B,]2 | [E,C]2 z E [E,=DE]2 [E,CE]2 | [E,C=D]2 [E,B,D]2 A,,4 | %8
 A,G,B,A, C2 A,2 | C2 B,E A,4 | z[K:treble] B B,2 z B B,2 | z2 GF B,2 z2 | A,G,B,A, ^B,2 A,2 | %13
 ^B,2 =B,[K:treble]E [A,EA]4 | ^B,=D[K:bass] ^B,,2 B,D B,,2 | =G,2 z2 z4 | ^E,2 E,2 E,2 E,2 | %17
 ^E,2 E,2 [E,=D]2 [E,^B,]2 | [^B,,^A,]2 [B,,=A,]2 [B,,^A,]2 [B,,A,]2 | [^E,D]3- [E,-=G,D] [E,A,]4 | %20
 [^A,,^A,]2 [A,,A,]2 [A,,^E,]2 [A,,E,]2 | [^B,,^E,]2 [B,,A,]2 [B,,G,]4 | %22
 [^B,,=G,]2 z ^B, B,,2 B,,2 | ^E,8 |] %24
V:3
 x8 | x8 | x8 | z2 .A,2 z4 | x8 | x8 | z2 E,2 z4 | x8 | x8 | E,4 z4 | F,2[K:treble] z2 F,2 z2 | %11
 E,6 z2 | x8 | E,4[K:treble] z4 | =G,2[K:bass] z2 G,2 z2 | ^B,2- [^E,B,-]2 [=E,B,-]2 [^B,,B,]2 | %16
 x8 | x8 | x8 | A,4 z4 | x8 | x8 | z2 ^B,,2 z4 | x8 |] %24
V:4
 x8 | x8 | x8 | x8 | x8 | x8 | z2 A2 z4 | x8 | x8 | A2 G2 z4 | x8 | [EB-]4 [GB]2 z2 | x8 | %13
 A2 G2 z4 | ^A2 z2 A2 z2 | ^A4 z4 | x8 | x8 | x8 | x8 | [=D^B]2 D-[D=A] [CB]2 [C^A]2 | z4 ^E4 | %22
 z2 E2 z4 | x8 |] %24

